X:1
T:'Ghruagach dhonn
T:The Brown Haired Lassie
M:2/4
L:1/8
Q:1/4=40
S:The Kilberry Book of Ceol Meadhonach
K:D
{/GdGc}d>B {/G}B>A | {/gAd}AG {/g}A2 | {/GdGc}d>c {/g}B<{/G}B | {/GdGc}d>e {/gfg}f2 |
{/ag}a>f {/gef}e>d | {/g}ef {/g}A2 | {/g}Bd {/gfg}f>d | {/gef}e>d {/g}B2 :: {/g}f<{/e}f {/ag}a>f | {/g}ef {/g}A2 |
{/g}Bd {/gef}e>f | {/g}f<ed/ {/g}B2 | {/GdGc}d>B {/G}B>A | {/gAd}AG {/g}A2 | {/g}Bd {/gfg}f>d | {/gef}e>d {/g}B2 :|

